X:235
T: DER ALTE GOTT LEBT NOCH
N: F0409
O: Europa, Mitteleuropa, Deutschland
R: Vaterlands -, Heimat - Lied, nationalistisch
M: 4/4
L: 1/8
K: C
C2 | A,2D2C2B,2 | C4z2
D2 | E2E2EGFE | DEDCB,2
DE | F2F2E2E2 | F4
G3F | E2E2D2C2 | B,CB,A,G,2
G,2 | C3CD3D | E4z2
G,2 | C3CD3D | E4z2
E2 | F2E2D2E2 | F4
E2C2 | A,4D4 | C4B,4 | C6

@@@ Tune index: 5666
